outputs/icons/maps/car_sharp.svg

<svg xmlns="http://www.w3.org/2000/svg" width="1200" height="1200" fill="none"><g clip-path="url(#a)"><path fill="#000" d="M929 250H271.5L150 600v450h150V950h600v100h150V600zM325 800c-41.5 0-75-33.5-75-75s33.5-75 75-75 75 33.5 75 75-33.5 75-75 75m550 0c-41.5 0-75-33.5-75-75s33.5-75 75-75 75 33.5 75 75-33.5 75-75 75M250 550l75-225h550l75 225z"/></g><defs><clipPath id="a"><path fill="#fff" d="M0 0h1200v1200H0z"/></clipPath></defs></svg>

<svg width="1200" height="1200" viewBox="0 0 1200 1200" fill="none" xmlns="http://www.w3.org/2000/svg"><g clip-path="url(#clip0_124_945)"><path d="M929 250H271.5L150 600V1050H300V950H900V1050H1050V600L929 250ZM325 800C283.5 800 250 766.5 250 725C250 683.5 283.5 650 325 650C366.5 650 400 683.5 400 725C400 766.5 366.5 800 325 800ZM875 800C833.5 800 800 766.5 800 725C800 683.5 833.5 650 875 650C916.5 650 950 683.5 950 725C950 766.5 916.5 800 875 800ZM250 550L325 325H875L950 550H250Z" fill="black"/></g><defs><clipPath id="clip0_124_945"><path width="24" fill="white" d="M0 0H1200V1200H0V0z"/></clipPath></defs></svg>
